assets/images/tab-icons/circuit.svg

<svg xmlns="http://www.w3.org/2000/svg" xmlns:xlink="http://www.w3.org/1999/xlink" xml:space="preserve" style="fill-rule:evenodd;clip-rule:evenodd;stroke-linecap:round;stroke-linejoin:round;stroke-miterlimit:5" viewBox="0 0 32 32"><defs><path id="reuse-0" d="M173.512 201.241v-3.69" style="fill:none;stroke:#fff;stroke-width:2.81px"/><path id="reuse-1" d="m169.139 214.357 1.84-1.84" style="fill:none;stroke:#fff;stroke-width:2.54px"/></defs><path d="m167.192 180.751 2.401.026c.119.155.243.306.373.452l-.42.078-.363 1.164 1.207-.798.047.046.06.055-.036.007-.363 1.163 1-.66c.088.067.177.133.268.197l.018 1.308.7-.857.073.041.124.065.017 1.224.724-.884.022.009.164.062.773 2.295c-.298-.061-.591-.135-.879-.222l.231-1.196-1.08.898c-.328-.131-.648-.28-.958-.445l-.115-.113-.177-1.417-.632.976-.195-.136-.129-.094.627-.823-1.278.303c-.246-.215-.483-.442-.707-.68l-.096-.277.468-1.347-1.157.687c-.261-.352-.499-.722-.712-1.107Zm17.616 0c-.213.384-.45.753-.71 1.104l-.561-.407.223.841c-.345.416-.722.805-1.129 1.161l-1.045-.336.493.787c-.101.077-.204.152-.308.225l-.393-.745-.233 1.15c-.304.182-.618.348-.942.497l-.288-.029-1.024-.994.15 1.473c-.333.106-.675.195-1.022.266l.773-2.295c.257-.094.507-.202.752-.322l-.039.15.905.817-.204-1.331.139-.087.004-.003.874.788-.196-1.275.101-.082.019-.015.078-.021 1.303.579-.579-1.188.089-.023 1.303.578-.605-1.241 2.072-.022Zm-2.414.043.013-.017.028-.001-.041.018Zm-13.824-11.696.672 2.148-1.117-.115.828.831c-.047.086-.094.172-.139.26l-.971-.1.696.698c-.067.162-.128.327-.185.495l-1.083.235.883.466c-.023.094-.043.189-.062.285l-1.103.24.988.521-.018.201-.005.091-1.974 1.467c-.03-.31-.044-.622-.044-.938l.002-.211.173.233 1.203-.187-1.333-.785c.023-.245.055-.487.095-.727l.184-.402 1.269-.647-1.14-.267.076-.234.051-.143.973.308-.68-1.041c.177-.395.378-.776.602-1.143l1.405-.015-.895-.738c.203-.273.419-.535.649-.786Zm14.86 0-.722 2.31.085.129.028.045 1.363-.265-.896 1.109v.005l.038.08 1.259-.245-.896 1.109v.071l.012.04.033.109 1.3.143-1.023.663-.094-.053.021.108.011.067 1.486.164-1.023.662-.383-.214.012.128.005.091 1.974 1.467c.029-.305.044-.613.044-.924l-.007.033-1.473-.25 1.227-.725.163-.423c-.037-.276-.086-.549-.145-.818l-1.188-.604.972-.214c-.04-.125-.081-.25-.125-.374l-1.048.316.726-1.115c-.19-.417-.408-.819-.651-1.203l-1.161-.012.744-.598c-.209-.283-.431-.554-.668-.812Zm-7.5-3.279.07-.001c.123 0 .246.003.369.008l-.029.011-.128 1.213 1.151-1.139.169.024.104.017.692.573.241 1.124-.468.332-.166-1.034-.571.987-.137-.023-.168-.023-.154-.957-.519.897c-.128-.006-.256-.01-.386-.01l-.071.001-.552-1.071-.254 1.118-.149.017-.031.005-.595-1.156-.302 1.326-.029.007-2.004-1.424c.297-.129.602-.243.913-.343l-.005.006.423 1.144.477-1.392c.235-.052.473-.096.714-.131l.471.111.885 1.119.039-1.336Zm2.647.334.751.447-.434.818 1.093-.777c-.453-.196-.924-.36-1.41-.488Z" style="fill:#fff" transform="matrix(1.02836 .27484 -.27555 1.02571 -116.5873 -244.8858)"/><path d="M181.855 203.472c0-1.778-1.444-3.221-3.221-3.221h-6.443c-1.777 0-3.221 1.443-3.221 3.221v6.442c0 1.778 1.444 3.221 3.221 3.221h6.443c1.777 0 3.221-1.443 3.221-3.221v-6.442Z" style="fill:none;stroke:#fff;stroke-width:2.17px" transform="matrix(.65024 -.65024 .65024 .65024 -232.7938 -4.197)"/><use xlink:href="#reuse-0" style="fill:none;stroke:#fff;stroke-width:2.81px" transform="matrix(.57261 -.57261 .42467 .42467 -175.9972 27.775)"/><circle cx="187.126" cy="195.657" r="2.597" style="fill:none;stroke:#fff;stroke-width:2.18px" transform="matrix(.4868 -.4868 .4868 .4868 -180.8989 6.352)"/><use xlink:href="#reuse-0" style="fill:none;stroke:#fff;stroke-width:2.81px" transform="matrix(.57261 -.57261 .42467 .42467 -171.6166 23.395)"/><circle cx="187.126" cy="195.657" r="2.597" style="fill:none;stroke:#fff;stroke-width:2.18px" transform="matrix(.4868 -.4868 .4868 .4868 -176.5182 1.971)"/><use xlink:href="#reuse-0" style="fill:none;stroke:#fff;stroke-width:2.81px" transform="matrix(.57261 .57261 -.42467 .42467 4.459 -175.4829)"/><circle cx="187.126" cy="195.657" r="2.597" style="fill:none;stroke:#fff;stroke-width:2.18px" transform="matrix(.4868 .4868 -.4868 .4868 25.883 -180.3846)"/><use xlink:href="#reuse-0" style="fill:none;stroke:#fff;stroke-width:2.81px" transform="matrix(.57261 .57261 -.42467 .42467 8.84 -171.1023)"/><circle cx="187.126" cy="195.657" r="2.597" style="fill:none;stroke:#fff;stroke-width:2.18px" transform="matrix(.4868 .4868 -.4868 .4868 30.264 -176.004)"/><use xlink:href="#reuse-0" style="fill:none;stroke:#fff;stroke-width:2.81px" transform="matrix(-.57261 .57261 -.42467 -.42467 207.549 4.309)"/><circle cx="187.126" cy="195.657" r="2.597" style="fill:none;stroke:#fff;stroke-width:2.18px" transform="matrix(-.4868 .4868 -.4868 -.4868 212.451 25.733)"/><use xlink:href="#reuse-0" style="fill:none;stroke:#fff;stroke-width:2.81px" transform="matrix(-.57261 .57261 -.42467 -.42467 203.168 8.69)"/><circle cx="187.126" cy="195.657" r="2.597" style="fill:none;stroke:#fff;stroke-width:2.18px" transform="matrix(-.4868 .4868 -.4868 -.4868 208.07 30.114)"/><use xlink:href="#reuse-0" style="fill:none;stroke:#fff;stroke-width:2.81px" transform="matrix(-.57261 -.57261 .42467 -.42467 27.093 207.568)"/><circle cx="187.126" cy="195.657" r="2.597" style="fill:none;stroke:#fff;stroke-width:2.18px" transform="matrix(-.4868 -.4868 .4868 -.4868 5.669 212.469)"/><use xlink:href="#reuse-0" style="fill:none;stroke:#fff;stroke-width:2.81px" transform="matrix(-.57261 -.57261 .42467 -.42467 22.712 203.187)"/><circle cx="187.126" cy="195.657" r="2.597" style="fill:none;stroke:#fff;stroke-width:2.18px" transform="matrix(-.4868 -.4868 .4868 -.4868 1.288 208.089)"/><use xlink:href="#reuse-1" style="fill:none;stroke:#fff;stroke-width:2.54px" transform="matrix(.78638 0 0 .78638 -123.4687 -146.5965)"/><use xlink:href="#reuse-1" style="fill:none;stroke:#fff;stroke-width:2px" transform="translate(-149.1848 -202.4202)"/><use xlink:href="#reuse-1" style="fill:none;stroke:#fff;stroke-width:2.4px" transform="rotate(90 159.8128 28.9732) scale(.835)"/><use xlink:href="#reuse-1" style="fill:none;stroke:#fff;stroke-width:2.37px" transform="rotate(90 161.8288 39.2772) scale(.84375)"/><path d="M172.121 209.364h2.096l.02-3.067 2.235.007.004 3.06h2.386" style="fill:none;stroke:#fff;stroke-width:1.5px" transform="translate(-159.823133 -192.370546)"/></svg>

<?xml version="1.0" encoding="UTF-8" standalone="no"?>
<!DOCTYPE svg PUBLIC "-//W3C//DTD SVG 1.1//EN" "http://www.w3.org/Graphics/SVG/1.1/DTD/svg11.dtd">
<svg width="100%" height="100%" viewBox="0 0 32 32" version="1.1" xmlns="http://www.w3.org/2000/svg" xmlns:xlink="http://www.w3.org/1999/xlink" xml:space="preserve" xmlns:serif="http://www.serif.com/" style="fill-rule:evenodd;clip-rule:evenodd;stroke-linecap:round;stroke-linejoin:round;stroke-miterlimit:5;">
    <g transform="matrix(1,0,0,1,-160,-192)">
        <g id="unknown">
        </g>
        <g id="plumbing">
        </g>
        <g id="genetics">
        </g>
        <g id="surgery">
        </g>
        <g id="trauma">
        </g>
        <g id="wound">
        </g>
        <g id="power">
        </g>
        <g id="solar">
        </g>
        <g id="machines">
        </g>
        <g id="supermatter">
        </g>
        <g id="shield">
        </g>
        <g id="turbine">
        </g>
        <g id="tcomm">
        </g>
        <g id="atmos">
        </g>
        <g id="xeno">
        </g>
        <g id="nanites">
        </g>
        <g id="aimod">
        </g>
        <g id="tips">
        </g>
        <g id="races">
        </g>
        <g id="food">
        </g>
        <g id="hydro">
        </g>
        <g id="song">
        </g>
        <g id="crate">
        </g>
        <g id="space">
        </g>
        <g id="aux">
        </g>
        <g id="security">
        </g>
        <g id="law">
        </g>
        <g id="sop">
        </g>
        <g id="trial">
        </g>
        <g id="traitor">
        </g>
        <g id="revolutionary">
        </g>
        <g transform="matrix(1.02836,0.274837,-0.275549,1.02571,43.4127,-52.8858)">
            <g id="cult">
                <path d="M167.192,180.751L169.593,180.777C169.712,180.932 169.836,181.083 169.966,181.229L169.546,181.307L169.183,182.471L170.39,181.673L170.437,181.719L170.497,181.774L170.461,181.781L170.098,182.944L171.098,182.284C171.186,182.351 171.275,182.417 171.366,182.481L171.384,183.789L172.084,182.932L172.157,182.973L172.281,183.038L172.298,184.262L173.022,183.378L173.044,183.387L173.208,183.449L173.981,185.744C173.683,185.683 173.39,185.609 173.102,185.522L173.333,184.326L172.253,185.224C171.925,185.093 171.605,184.944 171.295,184.779L171.18,184.666L171.003,183.249L170.371,184.225L170.176,184.089L170.047,183.995L170.674,183.172L169.396,183.475C169.15,183.26 168.913,183.033 168.689,182.795L168.593,182.518L169.061,181.171L167.904,181.858C167.643,181.506 167.405,181.136 167.192,180.751ZM184.808,180.751C184.595,181.135 184.358,181.504 184.098,181.855L183.537,181.448L183.76,182.289C183.415,182.705 183.038,183.094 182.631,183.45L181.586,183.114L182.079,183.901C181.978,183.978 181.875,184.053 181.771,184.126L181.378,183.381L181.145,184.531C180.841,184.713 180.527,184.879 180.203,185.028L179.915,184.999L178.891,184.005L179.041,185.478C178.708,185.584 178.366,185.673 178.019,185.744L178.792,183.449C179.049,183.355 179.299,183.247 179.544,183.127L179.505,183.277L180.41,184.094L180.206,182.763L180.345,182.676L180.349,182.673L181.223,183.461L181.027,182.186L181.128,182.104L181.147,182.089L181.225,182.068L182.528,182.647L181.949,181.459L182.038,181.436L183.341,182.014L182.736,180.773L184.808,180.751ZM182.394,180.794L182.407,180.777L182.435,180.776L182.394,180.794ZM168.57,169.098L169.242,171.246L168.125,171.131L168.953,171.962C168.906,172.048 168.859,172.134 168.814,172.222L167.843,172.122L168.539,172.82C168.472,172.982 168.411,173.147 168.354,173.315L167.271,173.55L168.154,174.016C168.131,174.11 168.111,174.205 168.092,174.301L166.989,174.541L167.977,175.062L167.959,175.263L167.954,175.354L165.98,176.821C165.95,176.511 165.936,176.199 165.936,175.883L165.938,175.672L166.111,175.905L167.314,175.718L165.981,174.933C166.004,174.688 166.036,174.446 166.076,174.206L166.26,173.804L167.529,173.157L166.389,172.89L166.465,172.656L166.516,172.513L167.489,172.821L166.809,171.78C166.986,171.385 167.187,171.004 167.411,170.637L168.816,170.622L167.921,169.884C168.124,169.611 168.34,169.349 168.57,169.098ZM183.43,169.098L182.708,171.408L182.793,171.537L182.821,171.582L184.184,171.317L183.288,172.426L183.288,172.431L183.326,172.511L184.585,172.266L183.689,173.375L183.689,173.446L183.701,173.486L183.734,173.595L185.034,173.738L184.011,174.401L183.917,174.348L183.938,174.456L183.949,174.523L185.435,174.687L184.412,175.349L184.029,175.135L184.041,175.263L184.046,175.354L186.02,176.821C186.049,176.516 186.064,176.208 186.064,175.897L186.057,175.93L184.584,175.68L185.811,174.955L185.974,174.532C185.937,174.256 185.888,173.983 185.829,173.714L184.641,173.11L185.613,172.896C185.573,172.771 185.532,172.646 185.488,172.522L184.44,172.838L185.166,171.723C184.976,171.306 184.758,170.904 184.515,170.52L183.354,170.508L184.098,169.91C183.889,169.627 183.667,169.356 183.43,169.098ZM175.93,165.819L176,165.818C176.123,165.818 176.246,165.821 176.369,165.826L176.34,165.837L176.212,167.05L177.363,165.911L177.532,165.935L177.636,165.952L178.328,166.525L178.569,167.649L178.101,167.981L177.935,166.947L177.364,167.934L177.227,167.911L177.059,167.888L176.905,166.931L176.386,167.828C176.258,167.822 176.13,167.818 176,167.818L175.929,167.819L175.377,166.748L175.123,167.866L174.974,167.883L174.943,167.888L174.348,166.732L174.046,168.058L174.017,168.065L172.013,166.641C172.31,166.512 172.615,166.398 172.926,166.298L172.921,166.304L173.344,167.448L173.821,166.056C174.056,166.004 174.294,165.96 174.535,165.925L175.006,166.036L175.891,167.155L175.93,165.819ZM178.577,166.153L179.328,166.6L178.894,167.418L179.987,166.641C179.534,166.445 179.063,166.281 178.577,166.153Z" style="fill:white;"/>
            </g>
        </g>
        <g id="nukie">
        </g>
        <g id="malf">
        </g>
        <g id="access">
        </g>
        <g id="xmorph">
        </g>
        <g id="abductor">
        </g>
        <g id="families">
        </g>
        <g id="circuit">
            <g transform="matrix(0.650239,-0.650239,0.650239,0.650239,-72.7938,187.803)">
                <path d="M181.855,203.472C181.855,201.694 180.411,200.251 178.634,200.251L172.191,200.251C170.414,200.251 168.97,201.694 168.97,203.472L168.97,209.914C168.97,211.692 170.414,213.135 172.191,213.135L178.634,213.135C180.411,213.135 181.855,211.692 181.855,209.914L181.855,203.472Z" style="fill:none;stroke:white;stroke-width:2.17px;"/>
            </g>
            <g transform="matrix(0.572611,-0.572611,0.424666,0.424666,-15.9972,219.775)">
                <path d="M173.512,201.241L173.512,197.551" style="fill:none;stroke:white;stroke-width:2.81px;"/>
            </g>
            <g transform="matrix(0.486803,-0.486803,0.486803,0.486803,-20.8989,198.352)">
                <circle cx="187.126" cy="195.657" r="2.597" style="fill:none;stroke:white;stroke-width:2.18px;"/>
            </g>
            <g transform="matrix(0.572611,-0.572611,0.424666,0.424666,-11.6166,215.395)">
                <path d="M173.512,201.241L173.512,197.551" style="fill:none;stroke:white;stroke-width:2.81px;"/>
            </g>
            <g transform="matrix(0.486803,-0.486803,0.486803,0.486803,-16.5182,193.971)">
                <circle cx="187.126" cy="195.657" r="2.597" style="fill:none;stroke:white;stroke-width:2.18px;"/>
            </g>
            <g transform="matrix(0.572611,0.572611,-0.424666,0.424666,164.459,16.5171)">
                <path d="M173.512,201.241L173.512,197.551" style="fill:none;stroke:white;stroke-width:2.81px;"/>
            </g>
            <g transform="matrix(0.486803,0.486803,-0.486803,0.486803,185.883,11.6154)">
                <circle cx="187.126" cy="195.657" r="2.597" style="fill:none;stroke:white;stroke-width:2.18px;"/>
            </g>
            <g transform="matrix(0.572611,0.572611,-0.424666,0.424666,168.84,20.8977)">
                <path d="M173.512,201.241L173.512,197.551" style="fill:none;stroke:white;stroke-width:2.81px;"/>
            </g>
            <g transform="matrix(0.486803,0.486803,-0.486803,0.486803,190.264,15.996)">
                <circle cx="187.126" cy="195.657" r="2.597" style="fill:none;stroke:white;stroke-width:2.18px;"/>
            </g>
            <g transform="matrix(-0.572611,0.572611,-0.424666,-0.424666,367.549,196.309)">
                <path d="M173.512,201.241L173.512,197.551" style="fill:none;stroke:white;stroke-width:2.81px;"/>
            </g>
            <g transform="matrix(-0.486803,0.486803,-0.486803,-0.486803,372.451,217.733)">
                <circle cx="187.126" cy="195.657" r="2.597" style="fill:none;stroke:white;stroke-width:2.18px;"/>
            </g>
            <g transform="matrix(-0.572611,0.572611,-0.424666,-0.424666,363.168,200.69)">
                <path d="M173.512,201.241L173.512,197.551" style="fill:none;stroke:white;stroke-width:2.81px;"/>
            </g>
            <g transform="matrix(-0.486803,0.486803,-0.486803,-0.486803,368.07,222.114)">
                <circle cx="187.126" cy="195.657" r="2.597" style="fill:none;stroke:white;stroke-width:2.18px;"/>
            </g>
            <g transform="matrix(-0.572611,-0.572611,0.424666,-0.424666,187.093,399.568)">
                <path d="M173.512,201.241L173.512,197.551" style="fill:none;stroke:white;stroke-width:2.81px;"/>
            </g>
            <g transform="matrix(-0.486803,-0.486803,0.486803,-0.486803,165.669,404.469)">
                <circle cx="187.126" cy="195.657" r="2.597" style="fill:none;stroke:white;stroke-width:2.18px;"/>
            </g>
            <g transform="matrix(-0.572611,-0.572611,0.424666,-0.424666,182.712,395.187)">
                <path d="M173.512,201.241L173.512,197.551" style="fill:none;stroke:white;stroke-width:2.81px;"/>
            </g>
            <g transform="matrix(-0.486803,-0.486803,0.486803,-0.486803,161.288,400.089)">
                <circle cx="187.126" cy="195.657" r="2.597" style="fill:none;stroke:white;stroke-width:2.18px;"/>
            </g>
            <g transform="matrix(0.786377,0,0,0.786377,36.5313,45.4035)">
                <path d="M169.139,214.357L170.979,212.517" style="fill:none;stroke:white;stroke-width:2.54px;"/>
            </g>
            <g transform="matrix(1,0,0,1,10.8152,-10.4202)">
                <path d="M169.139,214.357L170.979,212.517" style="fill:none;stroke:white;stroke-width:2px;"/>
            </g>
            <g transform="matrix(5.1129e-17,0.835,-0.835,5.1129e-17,348.786,61.1604)">
                <path d="M169.139,214.357L170.979,212.517" style="fill:none;stroke:white;stroke-width:2.4px;"/>
            </g>
            <g transform="matrix(5.16648e-17,0.84375,-0.84375,5.16648e-17,361.106,69.4484)">
                <path d="M169.139,214.357L170.979,212.517" style="fill:none;stroke:white;stroke-width:2.37px;"/>
            </g>
            <g transform="matrix(1,0,0,1,0.176867,-0.370546)">
                <path d="M172.121,209.364L174.217,209.364L174.237,206.297L176.472,206.304L176.476,209.364L178.862,209.364" style="fill:none;stroke:white;stroke-width:1.5px;"/>
            </g>
        </g>
        <g id="cyto">
        </g>
    </g>
</svg>
